images/white-logo.svg

<svg fill="none" height="20" viewBox="0 0 43 20" width="43" xmlns="http://www.w3.org/2000/svg"><path d="m41.2888 3.91554c.945 0 1.7111-.7599 1.7111-1.69727 0-.93738-.7661-1.697274-1.7111-1.697274-.9451 0-1.7112.759894-1.7112 1.697274 0 .93737.7661 1.69727 1.7112 1.69727z" fill="#bcd538"/><path d="m39.5779 8.75588v-3.69314c.5862.39289 3.3905 2.13731 3.3905 4.98176l.0159 1.2101-.0159 8.2507c-.8397-.3929-1.3625-.8801-1.8062-1.4301 0 0-.0158-.0315-.0158-.0158-.0634-.0785-.1109-.1571-.1743-.2357-.301-.4086-.5545-.8643-.7605-1.3358-.0475-.0943-.0792-.1886-.1109-.2829s-.0792-.1886-.1109-.2829c-.0951-.2986-.1743-.5972-.2535-.9115-.1109-.5343-.1743-1.1-.1743-1.6815z" fill="#fff"/><path d="m35.1733 3.91553c-2.5033 0-4.563 1.05293-5.8939 2.7502l-.0158-.01571c-.4436-.56576-.9823-1.06865-1.5844-1.46154v14.33252h3.2163.0158v-8.1092c0-2.57733 1.6795-4.49462 4.2778-4.49462 1.521 0 2.7252.66005 3.454 1.7287v-3.88172c-.9982-.55004-2.1548-.84863-3.4698-.84863z" fill="#bcd538"/><path d="m26.776 11.5218v7.9835h-3.248v-8.0935c0-2.57733-1.6794-4.49462-4.2778-4.49462s-4.2778 1.91729-4.2778 4.49462v8.0935h-3.1846v-8.0935c0-2.57733-1.6795-4.49462-4.27785-4.49462-1.53685 0-2.74097.59719-3.48563 1.68155-.52285.75435-.80803 1.71297-.80803 2.76597v8.1406h-3.21629v-14.37969c.602063.40861 1.06153.89579 1.50516 1.46154l.04753.06286c1.33088-1.69727 3.4381-2.79735 5.94142-2.79735 1.31503 0 2.47162.33003 3.45389.88007 1.014.56575 1.8379 1.38296 2.4241 2.38875 0 0 .0159.01571.0159.03143 0-.01572.0158-.01572.0158-.03143 1.1408-1.98015 3.2005-3.23739 5.8622-3.23739 4.4204.03143 7.51 3.33168 7.51 7.63771z" fill="#fff"/></svg>

<svg width="43" height="20" viewBox="0 0 43 20" fill="none" xmlns="http://www.w3.org/2000/svg">
<path d="M41.2888 3.91554C42.2338 3.91554 42.9999 3.15564 42.9999 2.21827C42.9999 1.28089 42.2338 0.520996 41.2888 0.520996C40.3437 0.520996 39.5776 1.28089 39.5776 2.21827C39.5776 3.15564 40.3437 3.91554 41.2888 3.91554Z" fill="#BCD538"/>
<path d="M39.5779 8.75588V5.06274C40.1641 5.45563 42.9684 7.20005 42.9684 10.0445L42.9843 11.2546L42.9684 19.5053C42.1287 19.1124 41.6059 18.6252 41.1622 18.0752C41.1622 18.0752 41.1464 18.0437 41.1464 18.0594C41.083 17.9809 41.0355 17.9023 40.9721 17.8237C40.6711 17.4151 40.4176 16.9594 40.2116 16.4879C40.1641 16.3936 40.1324 16.2993 40.1007 16.205C40.069 16.1107 40.0215 16.0164 39.9898 15.9221C39.8947 15.6235 39.8155 15.3249 39.7363 15.0106C39.6254 14.4763 39.562 13.9106 39.562 13.3291L39.5779 8.75588Z" fill="white"/>
<path d="M35.1733 3.91553C32.67 3.91553 30.6103 4.96846 29.2794 6.66573L29.2636 6.65002C28.82 6.08426 28.2813 5.58137 27.6792 5.18848V19.521H30.8955H30.9113V11.4118C30.9113 8.83447 32.5908 6.91718 35.1891 6.91718C36.7101 6.91718 37.9143 7.57723 38.6431 8.64588V4.76416C37.6449 4.21412 36.4883 3.91553 35.1733 3.91553Z" fill="#BCD538"/>
<path d="M26.776 11.5218V19.5053H23.528V11.4118C23.528 8.83447 21.8486 6.91718 19.2502 6.91718C16.6518 6.91718 14.9724 8.83447 14.9724 11.4118V19.5053H11.7878V11.4118C11.7878 8.83447 10.1083 6.91718 7.50995 6.91718C5.9731 6.91718 4.76898 7.51437 4.02432 8.59873C3.50147 9.35308 3.21629 10.3117 3.21629 11.3647V19.5053H0V5.12561C0.602063 5.53422 1.06153 6.0214 1.50516 6.58715L1.55269 6.65001C2.88357 4.95274 4.99079 3.85266 7.49411 3.85266C8.80914 3.85266 9.96573 4.18269 10.948 4.73273C11.962 5.29848 12.7859 6.11569 13.3721 7.12148C13.3721 7.12148 13.388 7.13719 13.388 7.15291C13.388 7.13719 13.4038 7.13719 13.4038 7.12148C14.5446 5.14133 16.6043 3.88409 19.266 3.88409C23.6864 3.91552 26.776 7.21577 26.776 11.5218Z" fill="white"/>
</svg>
